img/fb_icon_hover.svg

<svg xmlns="http://www.w3.org/2000/svg" width="24" height="24" viewBox="0 0 24 24">
  <g fill="none" fill-rule="evenodd">
    <circle cx="12" cy="12" r="12" fill="#0A1418"/>
    <path fill="#3B5999" fill-rule="nonzero" d="M5.40615789,0.0936710526 C5.40615789,0.0936710526 5.16682895,0.190184211 4.68781579,0.377526316 C3.95644737,0.669078947 3.41467105,1.11446053 3.06236842,1.71888158 C2.69632895,2.35006579 2.51431579,3.07551316 2.51431579,3.89522368 L2.51431579,6.08755263 L0,6.08755263 L0,9.01835526 L2.51431579,9.01835526 L2.51431579,16.4855132 L5.53926316,16.4855132 L5.53926316,9.01835526 L8.05275,9.01835526 C8.06506579,8.92977632 8.19201316,7.95884211 8.42861842,6.10638158 C8.42861842,6.09465789 8.42494737,6.08767105 8.41263158,6.08767105 L5.53926316,6.08767105 L5.53926316,4.46080263 C5.53926316,4.00784211 5.55596053,3.72398684 5.59480263,3.61160526 C5.59480263,3.57276316 5.63198684,3.47826316 5.70789474,3.32964474 C5.82075,3.13827632 6.003,2.99925 6.25689474,2.91232895 C6.41972368,2.84956579 6.72856579,2.81711842 7.18448684,2.81711842 L8.52631579,2.81711842 L8.52631579,0.206052632 C7.83236842,0.132631579 7.10242105,0.0936710526 6.33303947,0.0936710526 L6.25689474,0.0936710526 L5.40615789,0.0936710526 Z" transform="translate(7.737 3.71)"/>
  </g>
</svg>

<svg height="24" viewBox="0 0 24 24" width="24" xmlns="http://www.w3.org/2000/svg"><g fill="none" fill-rule="evenodd"><circle cx="12" cy="12" fill="#0a1418" r="12"/><path d="m5.40615789.09367105s-.23932894.09651316-.7183421.28385527c-.73136842.29155263-1.27314474.73693421-1.62544737 1.34135526-.36603947.63118421-.54805263 1.35663158-.54805263 2.1763421v2.19232895h-2.51431579v2.93080263h2.51431579v7.46715794h3.02494737v-7.46715794h2.51348684c.01231579-.08857894.13926316-1.05951315.37586842-2.91197368 0-.01172369-.00367105-.01871053-.01598684-.01871053h-2.87336842v-1.62686842c0-.45296052.01669737-.73681579.05553947-.84919737 0-.0388421.03718421-.1333421.11309211-.28196052.11285526-.19136842.29510526-.33039474.549-.41731579.16282894-.06276316.47167105-.09521053.9275921-.09521053h1.34182895v-2.61106579c-.69394737-.07342105-1.42389474-.11238158-2.19327632-.11238158h-.07614473z" fill="#3b5999" fill-rule="nonzero" transform="translate(7.737 3.71)"/></g></svg>
